assets/svg/1F4D7.svg

<svg xmlns="http://www.w3.org/2000/svg" viewBox="0 0 64 64" enable-background="new 0 0 64 64"><g transform="translate(6)"><path d="m.205 58.43c0 0 1.893 7.271 13.719 5.41l2.02-4.866-3.403-3.7-9.42-3.106-2.911 6.262" fill="#34484c"/><path d="m37.897 44.804c0 2.578-1.322 3.255-4.666 4.667l-28.563 12.06c-2.579 0-4.668-2.091-4.668-4.669v-40.13c0-2.58 1.517-3.438 4.668-4.668l28.563-12.06c2.579 0 4.666 2.089 4.666 4.668v40.14" fill="#085b50"/><path d="m2.596 61.04c0 0 10.705 3.072 11.328 2.807.627-.264-.397-4.642-.397-4.642l-3.871-4.172-3.606-.168-.634.901-2.82 5.274" fill="#34484c"/><path d="m32.559 2.776l-31.686 13.312 1.486 8.534 4.717.47 15.739-2.534 9.787-5.128 7.205-9.867c-1.575-2.823-3.886-4.571-7.248-4.787" fill="#f4f5f5"/><path d="m9.268 19.04c0-.75.131-1.347.388-1.856-3.244-.303-6.308-1.241-8.54-3.254-.74.683-1.106 1.531-1.106 2.794v40.13c0 2.578 2.091 4.669 4.667 4.669l4.611-1.948c-.013-.133-.021-.27-.021-.406v-40.13z" fill="#34484c"/><path d="m47.98 48.759c0 2.578-1.322 3.255-4.668 4.667l-29.388 10.418c-2.576 0-4.667-2.089-4.667-4.668v-40.13c0-2.58 1.517-3.438 4.667-4.67l29.388-10.419c2.581 0 4.668 2.089 4.668 4.668v40.14" fill="#089083"/><path d="m26.21 58.42c-2.579 0-4.668-2.091-4.668-4.67v-40.13c0-1.441.679-1.803 1.646-2.532l-9.267 3.283c-3.15 1.232-4.667 2.091-4.667 4.67v40.13c0 2.579 2.091 4.668 4.667 4.668l29.389-10.418c1.386-.587 2.42-1.045 3.164-1.563l-20.264 6.562" fill="#057366"/><g fill="#78111f"><path d="m35.814 16.205c.127.325-.036.691-.361.816l-15.633 6.03c-.325.125-.688-.037-.811-.364l0 0c-.129-.323.028-.689.357-.813l15.63-6.03c.328-.125.694.037.818.362l0 0"/><path d="m35.814 19.08c.127.325-.036.691-.361.817l-15.633 6.03c-.325.126-.688-.037-.811-.362l0 0c-.129-.327.033-.693.357-.815l15.63-6.03c.328-.127.694.036.818.36l0 0"/><path d="m30.5 24.1c.126.327.049.658-.176.746l-10.672 4.114c-.223.084-.505-.11-.629-.435l0 0c-.125-.327-.047-.658.176-.742l10.674-4.117c.221-.085.505.108.627.434l0 0"/></g></g></svg>

<?xml version="1.0" encoding="UTF-8" standalone="no"?>
<!-- Generator: Adobe Illustrator 16.0.0, SVG Export Plug-In . SVG Version: 6.00 Build 0)  -->

<svg
   xmlns:dc="http://purl.org/dc/elements/1.1/"
   xmlns:cc="http://creativecommons.org/ns#"
   xmlns:rdf="http://www.w3.org/1999/02/22-rdf-syntax-ns#"
   xmlns:svg="http://www.w3.org/2000/svg"
   xmlns="http://www.w3.org/2000/svg"
   xmlns:sodipodi="http://sodipodi.sourceforge.net/DTD/sodipodi-0.dtd"
   xmlns:inkscape="http://www.inkscape.org/namespaces/inkscape"
   version="1.1"
   id="Layer_1"
   x="0px"
   y="0px"
   width="64px"
   height="64px"
   viewBox="0 0 64 64"
   enable-background="new 0 0 64 64"
   xml:space="preserve"
   inkscape:version="0.48.5 r10040"
   sodipodi:docname="1F4D7.svg"><metadata
   id="metadata41673"><rdf:RDF><cc:Work
       rdf:about=""><dc:format>image/svg+xml</dc:format><dc:type
         rdf:resource="http://purl.org/dc/dcmitype/StillImage" /></cc:Work></rdf:RDF></metadata><defs
   id="defs41671" /><sodipodi:namedview
   pagecolor="#ffffff"
   bordercolor="#666666"
   borderopacity="1"
   objecttolerance="10"
   gridtolerance="10"
   guidetolerance="10"
   inkscape:pageopacity="0"
   inkscape:pageshadow="2"
   inkscape:window-width="640"
   inkscape:window-height="480"
   id="namedview41669"
   showgrid="false"
   inkscape:zoom="3.6875"
   inkscape:cx="32"
   inkscape:cy="32"
   inkscape:window-x="0"
   inkscape:window-y="0"
   inkscape:window-maximized="0"
   inkscape:current-layer="Layer_1" />
<g
   id="g41647"
   transform="translate(6,0)">
	<path
   d="m 0.205,58.434 c 0,0 1.893,7.271 13.719,5.41 l 2.015,-4.866 -3.403,-3.7 -9.42,-3.106 -2.911,6.262 z"
   id="path41649"
   inkscape:connector-curvature="0"
   style="fill:#34484c" />
	<path
   d="m 37.897,44.804 c 0,2.578 -1.322,3.255 -4.666,4.667 L 4.668,61.53 C 2.089,61.53 0,59.439 0,56.861 V 16.728 C 0,14.148 1.517,13.29 4.668,12.06 L 33.231,0 c 2.579,0 4.666,2.089 4.666,4.668 v 40.136 z"
   id="path41651"
   inkscape:connector-curvature="0"
   style="fill:#085b50" />
	<path
   d="m 2.596,61.037 c 0,0 10.705,3.072 11.328,2.807 0.627,-0.264 -0.397,-4.642 -0.397,-4.642 L 9.656,55.03 6.05,54.862 5.416,55.763 2.596,61.037 z"
   id="path41653"
   inkscape:connector-curvature="0"
   style="fill:#34484c" />
	<path
   d="m 32.559,2.776 -31.686,13.312 1.486,8.534 4.717,0.47 15.739,-2.534 9.787,-5.128 7.205,-9.867 C 38.232,4.74 35.921,2.992 32.559,2.776 z"
   id="path41655"
   inkscape:connector-curvature="0"
   style="fill:#f4f5f5" />
	<path
   d="m 9.268,19.044 c 0,-0.75 0.131,-1.347 0.388,-1.856 C 6.412,16.885 3.348,15.947 1.116,13.934 0.376,14.617 0.01,15.465 0.01,16.728 v 40.133 c 0,2.578 2.091,4.669 4.667,4.669 L 9.288,59.582 C 9.275,59.449 9.267,59.312 9.267,59.176 V 19.044 z"
   id="path41657"
   inkscape:connector-curvature="0"
   style="fill:#34484c" />
	<path
   d="m 47.98,48.759 c 0,2.578 -1.322,3.255 -4.668,4.667 L 13.924,63.844 c -2.576,0 -4.667,-2.089 -4.667,-4.668 V 19.044 c 0,-2.58 1.517,-3.438 4.667,-4.67 L 43.312,3.955 c 2.581,0 4.668,2.089 4.668,4.668 v 40.136 z"
   id="path41659"
   inkscape:connector-curvature="0"
   style="fill:#089083" />
	<path
   d="m 26.214,58.425 c -2.579,0 -4.668,-2.091 -4.668,-4.67 V 13.623 c 0,-1.441 0.679,-1.803 1.646,-2.532 l -9.267,3.283 c -3.15,1.232 -4.667,2.091 -4.667,4.67 v 40.132 c 0,2.579 2.091,4.668 4.667,4.668 L 43.314,53.426 c 1.386,-0.587 2.42,-1.045 3.164,-1.563 l -20.264,6.562 z"
   id="path41661"
   inkscape:connector-curvature="0"
   style="fill:#057366" />
	<path
   d="m 35.814,16.205 c 0.127,0.325 -0.036,0.691 -0.361,0.816 L 19.82,23.048 c -0.325,0.125 -0.688,-0.037 -0.811,-0.364 l 0,0 c -0.129,-0.323 0.028,-0.689 0.357,-0.813 l 15.63,-6.028 c 0.328,-0.125 0.694,0.037 0.818,0.362 l 0,0 z"
   id="path41663"
   inkscape:connector-curvature="0"
   style="fill:#78111f" />
	<path
   d="m 35.814,19.079 c 0.127,0.325 -0.036,0.691 -0.361,0.817 L 19.82,25.922 c -0.325,0.126 -0.688,-0.037 -0.811,-0.362 l 0,0 c -0.129,-0.327 0.033,-0.693 0.357,-0.815 l 15.63,-6.026 c 0.328,-0.127 0.694,0.036 0.818,0.36 l 0,0 z"
   id="path41665"
   inkscape:connector-curvature="0"
   style="fill:#78111f" />
	<path
   d="m 30.5,24.099 c 0.126,0.327 0.049,0.658 -0.176,0.746 l -10.672,4.114 c -0.223,0.084 -0.505,-0.11 -0.629,-0.435 l 0,0 c -0.125,-0.327 -0.047,-0.658 0.176,-0.742 l 10.674,-4.117 c 0.221,-0.085 0.505,0.108 0.627,0.434 l 0,0 z"
   id="path41667"
   inkscape:connector-curvature="0"
   style="fill:#78111f" />
</g>
</svg>
